X: 930
T: Gül Yüzün Soldukça
C: Vecihe Daryal
O: Turkey
F: http://compmusic.upf.edu/node/140
N: nisaburek--sarki--musemmen--gul_yuzun--vecihe_daryal
N: makam= nisaburek
N: form= sarki
N: usul= musemmen = 8/8
M: 8/8
L: 1/16
K: C ^9/8f ^3/4c ^3/4g 
Q: 1/4=132
%%MIDI tuningsystem comma53
edef ga=g2 f2e2 d2c2  | BABc defe dfe4z2  | 
w:  ARANAĞME  |   | 
baa=g gfe2 d2d2 c2B2  | AGAB cded cBc4z2  | 
w:   |   | 
edef ga=g2 f2e2 d2c2  | BABc defe dfe4z2  | 
w:  ARANAĞME  |   | 
baa=g gfe2 d2d2 c2B2  | cBAG BAA8z2  | \
w:   |   | 
d4 e2e4{a}=g2 f2e2  | 
w:  Gül  yü zün  *  sol  | 
e2d2 dcc2 cBB6  | A4 B2c2 d2e2 f2fe  | \
w:  duk *  ça  *  öm *  *  rüm  |  den  si ler  *  her   | 
e2d2 fee4ed cBA2  | 
w:  neş *  e *  yi   SAZ  | 
d4 e2e4{a}=g2 f2e2  | e2d2 dcc2 cBB6  | \
w:  Gül  yü zün  *  sol  |  duk *  ça  *  öm *  *  rüm  | 
A4 B2c2 d2e2 f2fe  | 
w:  den  si ler  *  her   | 
e2d2 fee4AB cde2  | =g2f2 e2e2 z2d2 c2B2  | \
w:  neş *  e *  yi   SAZ  |  Yıl *  dı ran  hır  | 
c4 d2e2 fee4z2  | 
w:  çın  fe lâ *  *  ket   | 
A4 B2c2 d2e4d2  | ^c2^3/4B2 dcc4^3/4c=B cde2  | \
w:  is ti yor  *  bil  |  mem  *  ne *  yi   SAZ  | 
=g2f2 e2e2 z2d2 c2B2  | 
w:  Yıl *  dı ran  hır  | 
c4 d2e2 fga4z2  | a2^2/4g2 f2e2 d2c4B2  | \
w:  çın  fe lâ *  *  ket   |  is *  ti yor  *  bil  | 
B2A2 BAA4e4z2  | 
w:  mem  *  ne *  yi    | 
^3/4d4 e2e4^2/4f4e2  | e4 e^3/4dd3^9/8cc6  | \
w:  Ey  ka der  kıs  |  kan ma  *  aş *  kı  | 
^9/8c4 B2^3/4A4^2/4f2 e2^3/4d2  | \
w:  mı  gü na hım  | 
e2^3/4d2 ^2/4fee8z2  | 
w:  dır  *  be *  nim    | 
e4 ^f2g4a6  | b2c'2 baa2 g^fe6  | =g4 f2e2 d2c2 B2A2  | \
w:  Ey  ka der  kıs  |  kan *  ma  *  aş *  *  kı  |  mı  gü na *  hım  | 
d2c2 fee4AB cde2  | 
w:  dır  *  be *  nim   SAZ  | 
=g2f2 e2e2 z2d2 c2B2  | c4 d2e2 fee6  | \
w:  Mer *  ha met  bek  |  ler  gö nül  *  *  çok  | 
A4 B2c2 d2e4z2  | d2^c^3/4B dcc4^3/4c=B cde2  | 
w:  tan  u nut *  muş   |  sev *  *  me *  yi   SAZ  | 
=g2f2 e2e2 z2d2 c2B2  | c4 d2e2 fga6  | \
w:  Mer *  ha met  bek  |  ler  gö nül  *  *  çok  | 
a2^2/4g2 f2e2 d2c4z2  | 
w:  tan  *  u nut *  muş   | 
B2A2 BAA8z2  | |


